X:160
T:New Garden Fields - Fone
%%VWML:SBG-1-2-786-0
F:http://www.vwml.org/record/SBG/1/2/786
Z:Original Sibelius transcriptions by M. & S. Graebe
M:4/4
I:linebreak $
K:C
V:1 treble nm="P1"
V:1
 GF | F2 E2 D2 C2 | G4 G2 G G | A2 c2 AG FE | D6 G2 | A2 B2 c2 d2 | cB AG A2 G2 |$ c2 d2 AG BA | %8
 G6 A2 | F2 E2 D2 C2 | G6 G2 | A2 c2 AGFE |$ D6 G2 | AB c2 ce d2 | e3 d c2 D2 | C2 CE E3 D | %16
 C4 x4 | %17

